X:13
T:la marée montante
C:Robin Beech and Laurence Beaudry
Z:robin.beech@mcgill.ca
R:bourree
M:2/4
L:1/8
K:Dmin
D>E  FG | A>B  Ad | ^c>d  ed | ^c>d  ed | D>E  FG | A>B  Ad
|1 ^cA-  AG | EC  EC :|2 ^cA-  AG | E^C  D2 |: d>A  AA | ^c>A  AA |
e>A  AA | g>A  AA | d>A  AA | ^c>A  AA | GA  =B^c | d2  d2 :|
